X:1
T:Downtown
C:John Wobus
S:John Wobus composed 5/10/2004
M:2/4
R:reel
K:D dorian
|:DDGD DADc | DDcD BDAD | DDGD DADc | DDcD d4 |
 DDGD DADc | DDcD BDAD |CDAD DADD | CA,A,A, D4 :|
|: F2FE FGAc | BGGA FFGE | F2FE FGAc | BGG(A A4) | F2FE FGAc |
 BGGA FFGE |[1 F2FE FGAc | BGG(A A4)  :|[2 F2FG AAAA | AAAA AAAA ||
W:Copyright 2004 John Wobus, PGTPPCATPL AORR
